svg/u1f341.svg

<svg viewBox="0 0 128 128" xmlns="http://www.w3.org/2000/svg">
  <path d="M59.17,122.18c0.2,0.99,1.31,1.87,4.39,2.07c3.08,0.2,5.15-0.3,5.23-1.95 c0.09-1.65-1.14-3.49-1.34-4.88c-0.2-1.39-0.99-10.74-1.19-15.61c-0.2-4.87-0.36-14.16-0.36-14.16l-4.07,0.43 c0,0,0.06,9.65-0.14,14.52c-0.2,4.87-1.01,12.01-1.11,13.89C60.49,118.2,58.75,120.1,59.17,122.18z" fill="#DF1324"/>
  <radialGradient id="SVGID_1_" cx="65.4184" cy="73.0276" gradientTransform="matrix(0.9999 0.0135 -0.0173 1.2815 1.2706 -21.44)" gradientUnits="userSpaceOnUse" r="42.0571">
    <stop offset="0.5964" stop-color="#FF5617"/>
    <stop offset="1" stop-color="#DF1024"/>
  </radialGradient>
  <path d="M63.88,89.48c0,0-5.57,6.36-9.55,8.75c-3.98,2.39-9.55,5.27-10.54,4.57 c-0.99-0.7,1.39-5.57,1.39-5.57s-8.32,1.88-17.53-0.79c-8.82-2.55-14.09-6.37-13.69-7.47s4.57-1.69,8.65-3.28 c4.08-1.59,9.55-4.18,9.55-4.18s-7.83-2.84-12.3-5.62s-7.29-5.41-7.39-6.31c-0.1-0.89,6.26-2.49,6.26-2.49s-3.48-2.39-6.07-10.14 S9.39,43.32,9.88,42.74c1.18-1.37,11.73,2.28,14.72,3.85c2.88,1.51,7.55,4.5,7.55,4.5s-0.3-5.97,0.7-5.97 c0.99,0,3.58,2.39,5.87,5.37c2.29,2.98,9.05,13.32,10.74,12.53c1.69-0.8,0.09-5.78-2.28-10.67c-1.49-3.08-3.59-8.23-4.78-14.29 c-1.18-6-0.5-10.94,0.2-11.53c0.7-0.6,7.46,4.67,7.46,4.67s-0.54-5.79,0.55-10.76c1.09-4.97,2.03-6.46,2.62-6.56 c0.6-0.1,2.99,3.4,2.99,3.4s0.92-4.95,2.91-8.43s3.75-5.09,4.64-5.09c0.89,0,3.52,3.49,4.71,7.17c1.19,3.68,1.88,6.73,1.88,6.73 s1.51-3.09,2.18-3.2c0.57-0.09,2.58,2.16,3.57,7.43s0.99,8.91,0.99,8.91s4.28-4.47,5.07-4.57c0.8-0.1,2.79,5.07,1.3,12.13 c-1.49,7.06-5.37,13.88-6.27,17.56c-0.89,3.68-1.69,7.29-0.2,7.69s3-4.1,6.18-9.08s7.54-10.21,8.14-9.82 c0.6,0.4,1.49,2.29,1.69,3.28c0.2,0.99,0.3,2.88,0.3,2.88s4.57-3.08,8.55-4.57c3.98-1.49,12.93-4.77,14.82-3.18 c1.89,1.59-1.49,10.14-3.48,14.52c-1.99,4.38-6.36,10.93-6.36,10.93s5.95,1.14,5.85,2.03c-0.1,0.89-4.95,4.89-9.33,7.18 c-4.38,2.29-9.96,4.13-9.96,4.13s2.49,1.69,8.35,3.58c5.87,1.89,10.74,2.49,11.14,3.48s-2.29,4.47-11.24,6.86 c-8.95,2.39-18.93,1.06-19.43,1.55c-0.5,0.5,2.43,4.41,1.63,5.51s-6.17-0.42-10.34-3.98C68.16,94.35,63.88,89.48,63.88,89.48z" fill="url(#SVGID_1_)"/>
  <path d="M63.97,91.94c0,0,1.82-1.4,5.59-2.16c2.07-0.42,4.88-0.47,7.95-0.4c8.24,0.17,17.03,1.71,21.65,1.87 c4.62,0.15,8.86,0,8.78-1s-7.16-0.54-12.55-1.54s-13.17-2.08-16.41-2.23c-8.37-0.41-10.09,0.77-10.09,0.77s10.78-9.55,14.79-12.63 c4.01-3.08,10.47-8.12,16.41-13.4c5.17-4.6,14.63-14.33,14.02-15.17c-0.62-0.85-12.25,10.24-16.48,13.63 c-4.24,3.39-9.85,7.6-18.55,14.46c-8.7,6.86-13.34,11.35-13.34,11.35s-0.69-25.8-0.92-31.89c-0.23-6.08-0.23-28.87-0.39-31.64 s0.39-14.26-1-14.19c-1.39,0.08-1.62,9.4-1.77,14.1c-0.15,4.7-0.15,24.49-0.31,30.58s0.23,32.73,0.23,32.73S45.02,72.72,38.86,67.79 C32.7,62.86,22.39,53.61,21,52.45c-1.39-1.16-6.71-6.11-7.33-5.49c-0.62,0.62,7.17,8.88,10.1,11.5s16.15,14.09,21.85,18.78 s12.88,9.92,12.88,9.92s-6.78-0.77-15.92,0.05c-6.93,0.62-13.43,1.42-16.28,1.65s-7.24,0.31-7.39,0.92 c-0.15,0.62,3.54,1.54,10.94,1.08c7.39-0.46,11.26-0.79,16.64-1.05c7.32-0.35,12.02-0.1,13.86,0.36 C62.2,90.63,63.97,91.94,63.97,91.94z" fill="#FF8E00"/>
</svg>

<svg viewBox="0 0 128 128" xmlns="http://www.w3.org/2000/svg">
  <defs>
    <radialGradient id="SVGID_1_" cx="66.399483" cy="56.286871" gradientTransform="matrix(0.9999 0.0135 -0.0173 1.2815 0 0)" gradientUnits="userSpaceOnUse" r="42.0571">
      <stop offset="0.5964" stop-color="#FF5617"/>
      <stop offset="1" stop-color="#DF1024"/>
    </radialGradient>
  </defs>
  <path d="M59.17,122.18 C59.37,123.17 60.48,124.05 63.56,124.25 C66.64,124.45 68.71,123.95 68.79,122.3 C68.88,120.65 67.65,118.81 67.45,117.42 C67.25,116.03 66.46,106.68 66.26,101.81 C66.06,96.94 65.9,87.65 65.9,87.65 L61.83,88.08 C61.83,88.08 61.89,97.73 61.69,102.6 C61.49,107.47 60.68,114.61 60.58,116.49 C60.49,118.2 58.75,120.1 59.17,122.18 Z" fill="#DF1324"/>
  <path d="M63.88,89.48 C63.88,89.48 58.31,95.84 54.33,98.23 C50.35,100.62 44.78,103.5 43.79,102.8 C42.8,102.1 45.18,97.23 45.18,97.23 C45.18,97.23 36.86,99.11 27.65,96.44 C18.83,93.89 13.56,90.07 13.96,88.97 C14.36,87.87 18.53,87.28 22.61,85.69 C26.69,84.1 32.16,81.51 32.16,81.51 C32.16,81.51 24.33,78.67 19.86,75.89 C15.39,73.11 12.57,70.48 12.47,69.58 C12.37,68.69 18.73,67.09 18.73,67.09 C18.73,67.09 15.25,64.7 12.66,56.95 C10.07,49.2 9.39,43.32 9.88,42.74 C11.06,41.37 21.61,45.02 24.6,46.59 C27.48,48.1 32.15,51.09 32.15,51.09 C32.15,51.09 31.85,45.12 32.85,45.12 C33.84,45.12 36.43,47.51 38.72,50.49 C41.01,53.47 47.77,63.81 49.46,63.02 C51.15,62.22 49.55,57.24 47.18,52.35 C45.69,49.27 43.59,44.12 42.4,38.06 C41.22,32.06 41.9,27.12 42.6,26.53 C43.3,25.93 50.06,31.2 50.06,31.2 C50.06,31.2 49.52,25.41 50.61,20.44 C51.7,15.47 52.64,13.98 53.23,13.88 C53.83,13.78 56.22,17.28 56.22,17.28 C56.22,17.28 57.14,12.33 59.13,8.85 C61.12,5.37 62.88,3.76 63.77,3.76 C64.66,3.76 67.29,7.25 68.48,10.93 C69.67,14.61 70.36,17.66 70.36,17.66 C70.36,17.66 71.87,14.57 72.54,14.46 C73.11,14.37 75.12,16.62 76.11,21.89 C77.1,27.16 77.1,30.8 77.1,30.8 C77.1,30.8 81.38,26.33 82.17,26.23 C82.97,26.13 84.96,31.3 83.47,38.36 C81.98,45.42 78.1,52.24 77.2,55.92 C76.31,59.6 75.51,63.21 77,63.61 C78.49,64.01 80,59.51 83.18,54.53 C86.36,49.55 90.72,44.32 91.32,44.71 C91.92,45.11 92.81,47 93.01,47.99 C93.21,48.98 93.31,50.87 93.31,50.87 C93.31,50.87 97.88,47.79 101.86,46.3 C105.84,44.81 114.79,41.53 116.68,43.12 C118.57,44.71 115.19,53.26 113.2,57.64 C111.21,62.02 106.84,68.57 106.84,68.57 C106.84,68.57 112.79,69.71 112.69,70.6 C112.59,71.49 107.74,75.49 103.36,77.78 C98.98,80.07 93.4,81.91 93.4,81.91 C93.4,81.91 95.89,83.6 101.75,85.49 C107.62,87.38 112.49,87.98 112.89,88.97 C113.29,89.96 110.6,93.44 101.65,95.83 C92.7,98.22 82.72,96.89 82.22,97.38 C81.72,97.88 84.65,101.79 83.85,102.89 C83.05,103.99 77.68,102.47 73.51,98.91 C68.16,94.35 63.88,89.48 63.88,89.48 Z" fill="url(#SVGID_1_)"/>
  <path d="M63.97,91.94 C63.97,91.94 65.79,90.54 69.56,89.78 C71.63,89.36 74.44,89.31 77.51,89.38 C85.75,89.55 94.54,91.09 99.16,91.25 C103.78,91.4 108.02,91.25 107.94,90.25 C107.86,89.25 100.78,89.71 95.39,88.71 C90,87.71 82.22,86.63 78.98,86.48 C70.61,86.07 68.89,87.25 68.89,87.25 C68.89,87.25 79.67,77.7 83.68,74.62 C87.69,71.54 94.15,66.5 100.09,61.22 C105.26,56.62 114.72,46.89 114.11,46.05 C113.49,45.2 101.86,56.29 97.63,59.68 C93.39,63.07 87.78,67.28 79.08,74.14 C70.38,81 65.74,85.49 65.74,85.49 C65.74,85.49 65.05,59.69 64.82,53.6 C64.59,47.52 64.59,24.73 64.43,21.96 C64.27,19.19 64.82,7.7 63.43,7.77 C62.04,7.85 61.81,17.17 61.66,21.87 C61.51,26.57 61.51,46.36 61.35,52.45 C61.19,58.54 61.58,85.18 61.58,85.18 C61.58,85.18 45.02,72.72 38.86,67.79 C32.7,62.86 22.39,53.61 21,52.45 C19.61,51.29 14.29,46.34 13.67,46.96 C13.05,47.58 20.84,55.84 23.77,58.46 C26.7,61.08 39.92,72.55 45.62,77.24 C51.32,81.93 58.5,87.16 58.5,87.16 C58.5,87.16 51.72,86.39 42.58,87.21 C35.65,87.83 29.15,88.63 26.3,88.86 C23.45,89.09 19.06,89.17 18.91,89.78 C18.76,90.4 22.45,91.32 29.85,90.86 C37.24,90.4 41.11,90.07 46.49,89.81 C53.81,89.46 58.51,89.71 60.35,90.17 C62.2,90.63 63.97,91.94 63.97,91.94 Z" fill="#FF8E00"/>
</svg>
